build/Karasa-Jaga/scalable/status/folder-drag-accept-symbolic.svg

<svg height="16" width="16" xmlns="http://www.w3.org/2000/svg"><g fill="#ccc"><path d="m1.7714843 1.474616c-.2281974 0-.3164586.2107768-.4121094.4277344l-.2402344.5429688.099609 4.703125c.00895-.0004971.019339.00306.027344-.00195h3.1953126l.5273438-.4160188h-3v-3.21875h12.0625001v2.4882812h.808593l.03906-2.9355468c.009903-.2368992-.181951-.4277344-.410153-.4277344h-8.4882813l-.7421876-1.1621094z"/><path d="m5.6484375 5.9726562-1.4492187 1.1738282h-3.1953126c-.20101181.1257871-.45008678.191669-.42773432.4277344l.51757812 5.4726562c.0223523.236063.1906144.427734.4277344.427734h12.9570316c.23712 0 .409304-.191332.427734-.427734l.517578-6.6464844c.018432-.2364031-.190614-.4277344-.427734-.4277344zm-2.3886719 1.8007813h.4960938c.025007.0039.0983777.0159219.2148437.0449219.134461.0335.2855294.1110375.2558594.0859375l2.328125 2.0839843-2.328125 2.0839848c-.113903.0954-.2097075.130859-.4296875.130859h-.5371094v-.46875c0-.08837.0772568-.250956.1835938-.347656l1.2734375-1.111328a.46214353.40348392 0 0 0 0-.5703129l-1.2734375-1.1132812c.02176.01983-.0082357-.0157425-.0410156-.1328125-.0166161-.05933-.1020382-.1647063-.1425782-.2539063zm8.9335934 0a.46214353.40348392 0 0 0 .009766 0h.537109v.46875c0 .08838-.077256.2509562-.183593.3476563l-1.275391 1.1113281a.46214353.40348392 0 0 0 0 .5703121l1.273438 1.113282c.106333.09672.183593.259256.183593.347656v.470703h-.537109c-.219853 0-.313921-.036713-.427734-.132813l-2.3320318-2.0839839 2.3300778-2.0820312c.112862-.09459.212461-.1288594.421875-.1308594z"/></g></svg>

<?xml version="1.0" encoding="UTF-8" standalone="no"?>
<!-- Created with Inkscape (http://www.inkscape.org/) -->

<svg
   xmlns:dc="http://purl.org/dc/elements/1.1/"
   xmlns:cc="http://creativecommons.org/ns#"
   xmlns:rdf="http://www.w3.org/1999/02/22-rdf-syntax-ns#"
   xmlns:svg="http://www.w3.org/2000/svg"
   xmlns="http://www.w3.org/2000/svg"
   xmlns:xlink="http://www.w3.org/1999/xlink"
   xmlns:sodipodi="http://sodipodi.sourceforge.net/DTD/sodipodi-0.dtd"
   xmlns:inkscape="http://www.inkscape.org/namespaces/inkscape"
   id="svg7384"
   height="16"
   width="16"
   version="1.1"
   inkscape:version="0.92.2 (unknown)"
   sodipodi:docname="folder-drag-accept-symbolic.svg">
  <defs
     id="defs8853">
    <linearGradient
       id="linearGradient4565">
      <stop
         id="stop4567"
         offset="0"
         style="stop-color:#161616;stop-opacity:1;" />
      <stop
         id="stop4569"
         offset="1"
         style="stop-color:#3a3a3a;stop-opacity:1;" />
    </linearGradient>
    <linearGradient
       inkscape:collect="always"
       xlink:href="#linearGradient4565"
       id="linearGradient4548"
       gradientUnits="userSpaceOnUse"
       x1="136.23065"
       y1="40.918156"
       x2="54.675591"
       y2="-40.636906" />
  </defs>
  <sodipodi:namedview
     pagecolor="#ffffff"
     bordercolor="#666666"
     borderopacity="1"
     objecttolerance="10"
     gridtolerance="10"
     guidetolerance="10"
     inkscape:pageopacity="0"
     inkscape:pageshadow="2"
     inkscape:window-width="1366"
     inkscape:window-height="706"
     id="namedview8851"
     showgrid="false"
     inkscape:zoom="20.85965"
     inkscape:cx="10.302755"
     inkscape:cy="5.5177797"
     inkscape:window-x="0"
     inkscape:window-y="0"
     inkscape:window-maximized="1"
     inkscape:current-layer="svg7384" />
  <metadata
     id="metadata90">
    <rdf:RDF>
      <cc:Work
         rdf:about="">
        <dc:format>image/svg+xml</dc:format>
        <dc:type
           rdf:resource="http://purl.org/dc/dcmitype/StillImage" />
        <dc:title>Gnome Symbolic Icon Theme</dc:title>
      </cc:Work>
    </rdf:RDF>
  </metadata>
  <title
     id="title9167">Gnome Symbolic Icon Theme</title>
  <path
     id="path4924-5"
     d="m 1.7714843,1.474616 c -0.2281974,0 -0.3164586,0.2107768 -0.4121094,0.4277344 l -0.2402344,0.5429688 0.099609,4.703125 c 0.00895,-4.971e-4 0.019339,0.00306 0.027344,-0.00195 H 4.4414061 L 4.9687499,6.7304754 h -3 v -3.21875 H 14.03125 v 2.4882812 h 0.808593 l 0.03906,-2.9355468 C 14.888806,2.8275606 14.696952,2.6367254 14.46875,2.6367254 H 5.9804687 L 5.2382811,1.474616 Z"
     clip-path="none"
     mask="none"
     style="display:inline;fill:#cccccc;fill-opacity:1;stroke:none"
     inkscape:connector-curvature="0" />
  <path
     style="fill:#cccccc;fill-opacity:1;stroke:none"
     d="M 5.6484375 5.9726562 L 4.1992188 7.1464844 L 1.0039062 7.1464844 C 0.80289439 7.2722715 0.55381942 7.3381534 0.57617188 7.5742188 L 1.09375 13.046875 C 1.1161023 13.282938 1.2843644 13.474609 1.5214844 13.474609 L 14.478516 13.474609 C 14.715636 13.474609 14.88782 13.283277 14.90625 13.046875 L 15.423828 6.4003906 C 15.44226 6.1639875 15.233214 5.9726562 14.996094 5.9726562 L 5.6484375 5.9726562 z M 3.2597656 7.7734375 L 3.7558594 7.7734375 C 3.7808664 7.7773375 3.8542371 7.7893594 3.9707031 7.8183594 C 4.1051641 7.8518594 4.2562325 7.9293969 4.2265625 7.9042969 L 6.5546875 9.9882812 L 4.2265625 12.072266 C 4.1126595 12.167666 4.016855 12.203125 3.796875 12.203125 L 3.2597656 12.203125 L 3.2597656 11.734375 C 3.2597656 11.646005 3.3370224 11.483419 3.4433594 11.386719 L 4.7167969 10.275391 A 0.46214353 0.40348392 0 0 0 4.7167969 9.7050781 L 3.4433594 8.5917969 C 3.4651194 8.6116269 3.4351237 8.5760544 3.4023438 8.4589844 C 3.3857277 8.3996544 3.3003056 8.2942781 3.2597656 8.2050781 L 3.2597656 7.7734375 z M 12.193359 7.7734375 A 0.46214353 0.40348392 0 0 0 12.203125 7.7734375 L 12.740234 7.7734375 L 12.740234 8.2421875 C 12.740234 8.3305675 12.662978 8.4931437 12.556641 8.5898438 L 11.28125 9.7011719 A 0.46214353 0.40348392 0 0 0 11.28125 10.271484 L 12.554688 11.384766 C 12.661021 11.481486 12.738281 11.644022 12.738281 11.732422 L 12.738281 12.203125 L 12.201172 12.203125 C 11.981319 12.203125 11.887251 12.166412 11.773438 12.070312 L 9.4414062 9.9863281 L 11.771484 7.9042969 C 11.884346 7.8097069 11.983945 7.7754375 12.193359 7.7734375 z "
     id="path4932" />
</svg>
